X: 18
T: Dusty Windowsills
C: Johnny Harling
Z: leprecawn
S: https://thesession.org/tunes/29#setting50740
R: jig
M: 6/8
L: 1/8
K: Ador
|:A2B cBA|eAB cBA|GFG EGG|EGG EFG|
A2B cBA|e2d efg|age dBG|ABA A3:|
|:a3 age|dBd g3|gag gfe|dBA GFG|
EGG DGG|EFG ABc|Bed BAG|ABA A3:||
|:A3 gAf|A3 ged|G3 edB|G3 edB|
A3 gAf|A3 efg|age dBG|ABA A3:|

